!!!COM: Palestrina, Giovanni Perluigi da
!!!OPR: Missa Emendemus in melius
!!!OTL: Agnus I
**kern	**kern	**kern	**kern
*Ibass	*Itenor	*Icalto	*Icant
!Bassus	!Tenor	!Altus	!Cantus
*clefF4	*clefGv2	*clefG2	*clefG2
*k[b-]	*k[b-]	*k[b-]	*k[b-]
*G:dor	*G:dor	*G:dor	*G:dor
*M4/2	*M4/2	*M4/2	*M4/2
=1	=1	=1	=1
0r	0r	0G	0r
=2	=2	=2	=2
0r	0r	1B-	0r
.	.	1c	.
=3	=3	=3	=3
0r	0r	2G	0d
.	.	1B-	.
.	.	4A	.
.	.	4G	.
=4	=4	=4	=4
0r	1r	1A	1f
.	[1G	2G	1g
.	.	4B-	.
.	.	4A	.
=5	=5	=5	=5
0r	1G]	4B-	2d
.	.	4c	.
.	.	4d	1b-
.	.	4c	.
.	1B-	4d	.
.	.	4e	.
.	.	[2f	4a
.	.	.	4g
=6	=6	=6	=6
0r	1c	2f]	2a
.	.	4e	1g
.	.	4d	.
.	2G	2e	.
.	[2B-	4d	4f
.	.	4c	4e
=7	=7	=7	=7
0D	2B-]	1d	1f
.	4A	.	.
.	4G	.	.
.	[1A	2.f	4d
.	.	.	4e
.	.	.	4f
.	.	4e	4g
=8	=8	=8	=8
1F	1A]	2d	4a
.	.	.	4b-
.	.	2c	2.a
1G	1r	2.B-	.
.	.	.	4g
.	.	.	2g
.	.	4c	.
=9	=9	=9	=9
2D	0A	2d	2.f
1F	.	4c	.
.	.	4B-	4g
.	.	2c	1a
4E	.	2d	.
4D	.	.	.
=10	=10	=10	=10
1E-	1c	2G	1r
.	.	1g	.
2D	1d	.	[1a
[2D	.	[2f	.
=11	=11	=11	=11
2D]	2A	2f]	1a]
4C	1c	4e	.
4BB-	.	4d	.
1AA	.	1e	1cc
.	4B-	.	.
.	4A	.	.
=12	=12	=12	=12
2GG	2.B-	2g	1dd
2G	.	2d	.
.	4c	.	.
2F	2d	1f	2a
2A	2c	.	[2cc
=13	=13	=13	=13
0G	2e-	2.g	2cc]
.	1d	.	4b-
.	.	8f	4a
.	.	8e	.
.	.	2.d	1b-
.	2B-	.	.
.	.	4e	.
=14	=14	=14	=14
2.F	2c	1f	1a
.	1d	.	.
4G	.	.	.
1A	.	1e	1a
.	2c#	.	.
=15	=15	=15	=15
2r	2d	1f	1a
2D	2d	.	.
2E	1c	1r	1r
2F	.	.	.
=16	=16	=16	=16
2G	1B-	0r	0r
4D	.	.	.
4E	.	.	.
4F	2A	.	.
4G	.	.	.
2A	[2c	.	.
=17	=17	=17	=17
1G	2c]	2r	1dd
.	2B-	2d	.
1r	1A	2e	1cc
.	.	2f	.
=18	=18	=18	=18
0r	2G	2g	1b-
.	2B-	4d	.
.	.	4e	.
.	2F	4f	2a
.	.	4g	.
.	2F	[2a	[2cc
=19	=19	=19	=19
0r	1G	2a]	2cc]
.	.	1g	2b-
.	1d	.	1a
.	.	2f#	.
=20	=20	=20	=20
1r	2r	2g	4g
.	.	.	4a
.	2G	2g	4b-
.	.	.	4cc
1D	2A	1f	1dd
.	2B-	.	.
=21	=21	=21	=21
1C	2c	1e	1g
.	4G	.	.
.	4A	.	.
1BB-	4B-	2d	1r
.	4c	.	.
.	2d	[2f	.
=22	=22	=22	=22
2AA	2.c	2f]	2r
1C	.	2e	2g
.	4B-	.	.
.	2A	2c	2a
2BB-	[2G	2d	2b-
=23	=23	=23	=23
1AA	2G]	1c	1cc
.	2F#	.	.
4GG	2G	2r	1b-
4AA	.	.	.
4BB-	4D	[2d	.
4C	4E	.	.
=24	=24	=24	=24
4D	4F	2d]	1a
4E	4G	.	.
2F	4A	1c	.
.	4B-	.	.
2C	2c	.	2g
2D	2A	2A	2f
=25	=25	=25	=25
1GG	2.G	1B-	4e
.	.	.	4d
.	.	.	1d
.	4F	.	.
1AA	1E	[1A	.
.	.	.	2c#
=26	=26	=26	=26
[0D	1F	1A]	2d
.	.	.	1a
.	2D	2r	.
.	[2d	[2f	2a
=27	=27	=27	=27
1D]	2d]	2f]	1a
.	2d	2f	.
1r	1d	1f	2d
.	.	.	4dd
.	.	.	4cc
=28	=28	=28	=28
1r	1G	1g	4b-
.	.	.	4a
.	.	.	2b-
[1D	2.d	1f	2a
.	.	.	4d
.	4c	.	4e
=29	=29	=29	=29
2D]	2B-	0d	4f
.	.	.	4e
2D	4A	.	4f
.	4G	.	4g
1D	1F	.	4a
.	.	.	4b-
.	.	.	[2a
=30	=30	=30	=30
1GG	1B-	2r	4a]
.	.	.	4g
.	.	1d	2g
2.D	2A	.	2.f
.	2A	2d	.
4E	.	.	4g
=31	=31	=31	=31
2F	2A	1d	2a
2G	1B-	.	4g
.	.	.	4f
1E-	.	1G	1g
.	4A	.	.
.	4G	.	.
=32	=32	=32	=32
1.D	2.F	2.d	2r
.	.	.	1dd
.	4G	4e	.
.	2A	2f	.
2GG	2B-	[2g	2dd
=33	=33	=33	=33
1D	2.A	2g]	1dd
.	.	2f	.
.	4B-	.	.
1r	[1c	1e-	1g
=34	=34	=34	=34
1.G	2c]	1d	2.dd
.	2B-	.	.
.	.	.	4cc
.	2e-	4G	4b-
.	.	4A	4a
2G	4d	4B-	4g
.	4c	4c	4a
=35	=35	=35	=35
1G	1B-	2d	4b-
.	.	.	4cc
.	.	2d	2.dd
1C	1c	1e-	.
.	.	.	4cc
.	.	.	[2cc
=36	=36	=36	=36
2.G	2r	1d	4cc]
.	.	.	4b-
.	1d	.	1b-
4A	.	.	.
2B-	.	2G	.
2F	2d	2A	2a
=37	=37	=37	=37
2.G	1d	2B-	2g
.	.	2G	1dd
4F	.	.	.
1E-	1G	[1g	.
.	.	.	2cc
=38	=38	=38	=38
1D	2.d	2g]	2b-
.	.	2f	2.a
.	4c	.	.
2E-	2B-	2e-	.
.	.	.	4g
2C	2c	2e-	[2g
=39	=39	=39	=39
0D	0A	0d	2g]
.	.	.	4f#
.	.	.	4e
.	.	.	1f#
=40	=40	=40	=40
0GG	0B	0d	0g
==	==	==	==
*-	*-	*-	*-
!!!CDT: 1525/^1526/-1594/2/2
!!!OCY: Italia
!!!AGN: Mass (Parody)
!!!AST: renaissance, vocal
!!!ASW: Antiphon
!!!PWK: Masses, Book 7
!!!RNB: Cadence finals: D
!!!YOR: Le Opere Complete, v. 23, p. 61
!!!YOO: Rome, Italy: Fratelli Scalera
!!!END: 1992//
!!!EED: John Miller
!!!YEC: Copyright 2000, John Miller
!!!YEN: United States of America
!!!YEM: Rights to all derivative electronic formats reserved.
!!!YEM: Refer to licensing agreement for further details.
!!!YEM: This file must be accompanied by the licensing agreement.
!!!YEM: A copy of the licensing agreement may be found at http://www.music-cog.ohio-state.edu/HumdrumDatabases/Palestrina/license.txt
!!!EMD: converted to Humdrum by Bret Aarden
